X:1
T:Prairie Sunflower / Fly Around My Pretty Little Miss
M:4/4    %(3/4, 4/4, 6/8)
L:1/4    %(1/8, 1/4)
V:1 clef=treble
P:Play AABB
K:D    %(D, C)
%%continueall 1
%%partsbox 1
P:A
|:"D""^Prairie Sunflower"f f/2f/2 f e|d d/2d/2 d c|d c B A|B A G F
|"A"e e/2e/2 e  d|c c c B|A B A G|"D"F4:|
|:"D"D F A d|D F A d|"G"G B d g|G B d g
|"A"A c e a|A c e a|"D"f f/2f/2 f "A"e|"D"d4:||
P:B
|:"D""^Pretty Little Miss"f e d B|A/2B/2A/2G/2 F2|A3/2 A/2 B d|f2 f2
|f e d B|A/2B/2A/2G/2 F2|"G"G3/2 G/2 "A"F E|"D"D2 D2:||
|:"D"F A A A/2A/2|"G"B G G G/2G/2|"D"A A/2B/2 A F|"A"E E/2E/2 E E
|"D"F A A/2A/2 A|"G"G B B/2B/2 B|"A"A A F E|"D"D D/2D/2 D D:||
